X: 12
T: Reel With The Birl, The
Z: JACKB
S: https://thesession.org/tunes/189#setting47399
R: reel
M: 4/4
L: 1/8
K: Edor
E2 BE DE E2|EDBA AFDF|E2 BE DE E2|dedB AFDF|
E2 BE DE E2|EDBA AFDF|E2 BE DEBc|dedB A2 FA||
BABd e2 de|fddc d2 ef|g3f g2 ag|f2 af fedB|
fB B2 faaf|gefd edBA|GBEF GABd|eddB AGFD||

